img/why2.svg

<svg width="71" height="96" viewBox="0 0 71 96" fill="none" xmlns="http://www.w3.org/2000/svg">
<path d="M0.933594 72.5116V81.5512C0.933594 82.1212 1.16017 82.6673 1.56297 83.0701C1.96577 83.4729 2.51243 83.6995 3.08185 83.6995H30.8466C32.0328 83.6995 32.9948 82.7374 32.9948 81.5512C32.9948 80.365 32.0328 79.4029 30.8466 79.4029H5.23011V72.5284C5.22891 70.6342 5.78277 68.7809 6.82274 67.1973C7.8627 65.6137 9.34326 64.3693 11.0821 63.6177L30.8891 55.0246H30.8897C31.6695 54.6884 32.1784 53.9235 32.1868 53.0736V46.1223C32.1862 45.364 31.9422 44.6261 31.4909 44.0165C29.7287 41.4624 28.6298 38.5091 28.2943 35.4235C28.2235 34.8139 27.895 34.2636 27.3922 33.9112C25.4596 32.5661 24.3053 30.3627 24.2987 28.0076C24.2939 27.579 24.4683 27.1678 24.78 26.8735C25.0941 26.5744 25.5149 26.4138 25.9482 26.427C26.5284 26.4497 27.0931 26.2375 27.5145 25.8378C27.9352 25.438 28.1762 24.8847 28.1828 24.3045L28.2517 17.7481V17.7476C28.2481 16.2772 28.5221 14.8195 29.0591 13.451C30.6835 9.36965 34.8254 5.07313 40.0582 5.07313H41.4242L41.4248 7.43591C41.4236 8.54 42.2592 9.46494 43.358 9.57573C46.6606 10.0636 49.6049 11.9199 51.4696 14.6886C52.2872 15.8281 52.726 17.1959 52.7242 18.598V24.2528C52.7242 24.8222 52.9508 25.3689 53.3536 25.7717C53.7564 26.1745 54.303 26.401 54.8724 26.401C55.2956 26.404 55.7002 26.5737 55.9981 26.8734C56.296 27.1683 56.4603 27.5717 56.4537 27.9907C56.4453 30.2965 55.3376 32.461 53.4722 33.8169C52.9891 34.1729 52.678 34.7154 52.6126 35.3118C52.2848 38.4964 51.1393 41.5425 49.2871 44.1542C48.5751 45.103 48.7675 46.4499 49.7169 47.1614C50.6658 47.8735 52.0126 47.6811 52.7242 46.7323C54.8689 43.7562 56.2553 40.3025 56.7629 36.6695C59.2906 34.486 60.7484 31.3139 60.7591 27.9734C60.7639 26.4156 60.1447 24.9211 59.0401 23.8231C58.4652 23.2482 57.7777 22.7975 57.0207 22.4996V18.5898C57.0297 16.2779 56.3014 14.0235 54.9413 12.1534C52.7182 8.97722 49.4581 6.67429 45.7213 5.64036V2.92511C45.7213 2.35509 45.4947 1.80843 45.0919 1.40564C44.6891 1.00284 44.1425 0.776855 43.5731 0.776855H40.0582C32.8402 0.776855 27.2286 6.49092 25.0635 11.7933V11.7927C24.3238 13.664 23.9444 15.6582 23.9462 17.6705L23.8947 22.4484C23.1118 22.7313 22.3974 23.1766 21.798 23.7545C20.6447 24.858 19.9956 26.3864 20.0022 27.9821C20.0076 31.3963 21.5277 34.6325 24.1525 36.816C24.6404 40.2476 25.9202 43.5192 27.8903 46.3712V51.656L9.38148 59.6563C6.87186 60.74 4.73495 62.5353 3.23409 64.8195C1.73258 67.1039 0.933607 69.7777 0.934221 72.5117L0.933594 72.5116Z" fill="black"/>
<g style="mix-blend-mode:multiply">
<circle cx="11.4336" cy="59.8789" r="10.5" fill="url(#paint0_linear_131_1489)"/>
</g>
<path d="M54.869 54.2521C53.1158 54.2844 51.6473 54.8929 50.4637 56.078C49.2797 57.2627 48.6711 58.7315 48.6378 60.4833V72.9457C48.6701 74.6989 49.2786 76.1674 50.4637 77.351C51.6484 78.5351 53.1172 79.1436 54.869 79.177C56.6222 79.1446 58.0906 78.5361 59.2743 77.351C60.4583 76.1663 61.0668 74.6975 61.1002 72.9457V60.4833C61.0679 58.7301 60.4593 57.2617 59.2743 56.078C58.0895 54.894 56.6207 54.2855 54.869 54.2521ZM54.869 51.1365C57.5308 51.2018 59.7378 52.1108 61.4896 53.8626C63.2415 55.6145 64.1505 57.8215 64.2158 60.4833V72.9457C64.1504 75.6075 63.2415 77.8145 61.4896 79.5664C59.7378 81.3183 57.5308 82.2272 54.869 82.2926C52.2072 82.2272 50.0002 81.3183 48.2483 79.5664C46.4964 77.8145 45.5875 75.6075 45.5221 72.9457V60.4833C45.5875 57.8215 46.4964 55.6145 48.2483 53.8626C50.0002 52.1108 52.2072 51.2018 54.869 51.1365ZM53.3112 91.6394V88.5238C49.3513 88.4264 46.0493 87.0546 43.4053 84.4095C40.7613 81.7643 39.3898 78.4623 39.291 74.5036V72.9458C39.291 72.491 39.4371 72.1175 39.7288 71.8258C40.0205 71.5341 40.394 71.388 40.8488 71.388C41.3036 71.388 41.6771 71.5341 41.9688 71.8258C42.2606 72.1175 42.4066 72.491 42.4066 72.9458V74.5036C42.472 77.5869 43.535 80.159 45.5956 82.2193C47.6559 84.2799 50.228 85.3429 53.3113 85.4083H56.4269C59.5102 85.3429 62.0822 84.2799 64.1425 82.2193C66.2031 80.159 67.2662 77.5869 67.3315 74.5036V72.9458C67.3315 72.491 67.4772 72.1175 67.7693 71.8258C68.061 71.5341 68.4345 71.388 68.8893 71.388C69.3441 71.388 69.7176 71.5341 70.0093 71.8258C70.3014 72.1175 70.4471 72.491 70.4471 72.9458V74.5036C70.3497 78.4635 68.978 81.7655 66.3328 84.4095C63.6877 87.0539 60.3856 88.425 56.427 88.5238V91.6394H59.5426C59.9974 91.6394 60.3708 91.7851 60.6626 92.0772C60.9543 92.3689 61.1004 92.7424 61.1004 93.1972C61.1004 93.652 60.9543 94.0255 60.6626 94.3172C60.3708 94.6093 59.9974 94.755 59.5426 94.755H50.1957C49.7409 94.755 49.3675 94.6093 49.0757 94.3172C48.784 94.0255 48.6379 93.652 48.6379 93.1972C48.6379 92.7424 48.784 92.3689 49.0757 92.0772C49.3675 91.7851 49.7409 91.6394 50.1957 91.6394H53.3112Z" fill="black" stroke="black"/>
<defs>
<linearGradient id="paint0_linear_131_1489" x1="2.91901" y1="45.3019" x2="24.9603" y2="46.6887" gradientUnits="userSpaceOnUse">
<stop stop-color="#0085FF"/>
<stop offset="1" stop-color="#591FFF"/>
</linearGradient>
</defs>
</svg>

<svg width="71" height="96" fill="none" xmlns="http://www.w3.org/2000/svg"><path d="M.934 72.512v9.04a2.148 2.148 0 002.148 2.147h27.765a2.149 2.149 0 000-4.296H5.23v-6.875a9.701 9.701 0 015.852-8.91l19.807-8.593a2.148 2.148 0 001.298-1.951v-6.952c0-.758-.245-1.496-.696-2.105a18.69 18.69 0 01-3.197-8.594 2.15 2.15 0 00-.902-1.512 7.217 7.217 0 01-3.093-5.903c-.005-.429.17-.84.481-1.134.314-.3.735-.46 1.168-.447a2.15 2.15 0 002.235-2.122l.069-6.557c-.004-1.47.27-2.929.807-4.297 1.624-4.081 5.766-8.378 11-8.378h1.365v2.363a2.148 2.148 0 001.934 2.14 11.872 11.872 0 018.112 5.113 6.692 6.692 0 011.254 3.909v5.655a2.149 2.149 0 002.148 2.148c.424.003.828.173 1.126.472.298.295.462.699.456 1.118a7.236 7.236 0 01-2.982 5.826 2.147 2.147 0 00-.86 1.495 18.573 18.573 0 01-3.325 8.842 2.148 2.148 0 103.437 2.578 22.548 22.548 0 004.039-10.063 11.54 11.54 0 003.996-8.696 5.826 5.826 0 00-1.719-4.15 5.924 5.924 0 00-2.02-1.323v-3.91a10.87 10.87 0 00-2.079-6.437 16.685 16.685 0 00-9.22-6.513V2.925A2.15 2.15 0 0043.573.777h-3.515c-7.218 0-12.83 5.714-14.994 11.016a15.95 15.95 0 00-1.118 5.878l-.051 4.777a5.92 5.92 0 00-2.097 1.306 5.818 5.818 0 00-1.796 4.228 11.515 11.515 0 004.15 8.834 22.347 22.347 0 003.738 9.555v5.285l-18.509 8A13.994 13.994 0 00.934 72.512z" fill="#000"/><circle cx="11.434" cy="59.879" r="10.5" fill="url(#paint0_linear_131_1489)"/><path d="M54.869 54.252c-1.753.032-3.222.64-4.405 1.826-1.184 1.185-1.793 2.653-1.826 4.405v12.463c.032 1.753.64 3.221 1.826 4.405 1.184 1.184 2.653 1.793 4.405 1.826 1.753-.032 3.222-.64 4.405-1.826 1.184-1.185 1.793-2.653 1.826-4.405V60.483c-.032-1.753-.64-3.221-1.826-4.405-1.184-1.184-2.653-1.793-4.405-1.826zm0-3.116c2.662.066 4.869.975 6.62 2.727 1.753 1.752 2.661 3.959 2.727 6.62v12.463c-.066 2.662-.974 4.868-2.726 6.62-1.752 1.752-3.96 2.661-6.621 2.727-2.662-.066-4.869-.975-6.62-2.727-1.753-1.752-2.662-3.959-2.727-6.62V60.483c.066-2.661.974-4.868 2.726-6.62 1.752-1.752 3.96-2.661 6.621-2.727zM53.311 91.64v-3.115c-3.96-.098-7.262-1.47-9.906-4.115-2.644-2.645-4.015-5.947-4.114-9.905v-1.558c0-.455.146-.828.438-1.12.291-.292.665-.438 1.12-.438.455 0 .828.146 1.12.438.292.292.438.665.438 1.12v1.558c.065 3.083 1.128 5.655 3.189 7.715 2.06 2.06 4.632 3.124 7.715 3.19h3.116c3.083-.066 5.655-1.13 7.715-3.19 2.061-2.06 3.124-4.632 3.19-7.715v-1.558c0-.455.145-.828.437-1.12.292-.292.665-.438 1.12-.438.455 0 .829.146 1.12.438.292.292.438.665.438 1.12v1.558c-.097 3.96-1.469 7.261-4.114 9.905-2.645 2.645-5.947 4.016-9.906 4.115v3.115h3.116c.454 0 .828.146 1.12.438.291.292.437.665.437 1.12 0 .455-.146.828-.437 1.12-.292.292-.666.438-1.12.438h-9.347c-.455 0-.828-.146-1.12-.438-.292-.291-.438-.665-.438-1.12 0-.455.146-.828.438-1.12.291-.292.665-.438 1.12-.438h3.115z" fill="#000" stroke="#000"/><defs><linearGradient id="paint0_linear_131_1489" x1="2.919" y1="45.302" x2="24.96" y2="46.689" gradientUnits="userSpaceOnUse"><stop stop-color="#0085FF"/><stop offset="1" stop-color="#591FFF"/></linearGradient></defs></svg>
